X:9
T:Aird of Coigach
C:Colin Hume, 2019
L:1/8
M:6/8
R:Jig
S:Colin Hume's website,  colinhume.com  - chords can also be printed below the stave.
%%MIDI program 21     Accordion
%%MIDI chordprog 25   Acoustic Guitar (steel)
%%MIDI bassprog 32    Acoustic Bass
Q:3/8=112
K:G
P:A
|: D | "G"G2G d2B | "F"c2d cBA | "Em"B2c BAG | "D7"A2B AGF |\
"G"GD2 D2G | "Dm"A=F2 F2A | "G"B2c BAG |1 "D7"A3 "G"G2 :|2 "D7"A3 "G"G3 |
P:B
|: "G"d2G GAB | "F"c2=F FGA | "Em"B2G G2B | "D"AD2 D3 |\
"G"d2B Bcd | "C"e2c cde | "G"d2B B2d | "F"cA2 A3 :|
P:C
"G"B3 B2c | "/"d3 g3 | "C"e3 d2c | "G"d3 G3 |\
"C"E3 E2F | "G/B"G3 d3 | "A7"B3 A2G | "D7"A3- A2D |
P:D
"G"G2G d2B | "F"c2d cBA | "Em"B2c BAG | "D7"A2B AGF |\
"C"Ee2 e2d | "Am"c2B ABc | "G"dg2 d2B | "D7"ABA "G"G3 |]

